X: 317
T: A Potato For Emile
R: reel
M: 4/4
K: Bminor
|:B2dc BFFA|BBde ~f3e|dBBA BFFA|Bffb fedc|
dBBA FAFA|BAFE FED2|A,B,DE FABc|dfec ABB2:|
|:d2c2 B2FB|[M:6/4] ABFB ABFA Bcde|fbea dfce B2FB|dBFB A2ag fedc|
[M:4/4]d2c2 B2FB|[M:6/4] ABBc BAFE FED2|[M:4/4] A,B,DE FABc|dfec ABB2:|

